static/files/images/img-backborder.svg

<svg width="246" height="455" viewBox="0 0 246 455" version="1.1" xmlns="http://www.w3.org/2000/svg" xmlns:xlink="http://www.w3.org/1999/xlink">
<title>after</title>
<desc>Created using Figma</desc>
<g id="Canvas" transform="matrix(1.5 0 0 1.5 -12342 168)">
<g id="after">
<g id="Group">
<g id="Rectangle 5">
<use xlink:href="#path0_fill" transform="translate(8228 24.0481)" fill="url(#paint0_linear)"/>
</g>
<mask id="mask0_alpha" mask-type="alpha">
<g id="Ellipse">
<use xlink:href="#path1_fill" transform="translate(8228 12)" fill="url(#paint1_linear)"/>
</g>
</mask>
<g id="Ellipse" mask="url(#mask0_alpha)">
<use xlink:href="#path1_fill" transform="translate(8228 12)" fill="url(#paint2_linear)"/>
</g>
</g>
<g id="Vector">
<use xlink:href="#path2_stroke" transform="matrix(6.12323e-17 -1 1 6.12323e-17 8356 2)" fill="#FFFFFF" fill-opacity="0.2"/>
</g>
<g id="Vector">
<use xlink:href="#path3_stroke" transform="matrix(6.12323e-17 -1 1 6.12323e-17 8308 -56)" fill="#FFFFFF" fill-opacity="0.2"/>
</g>
<g id="Vector">
<use xlink:href="#path3_stroke" transform="matrix(6.12323e-17 -1 1 6.12323e-17 8266 6)" fill="#FFFFFF" fill-opacity="0.2"/>
</g>
</g>
</g>
<defs>
<linearGradient id="paint0_linear" x1="0" y1="0" x2="1" y2="0" gradientUnits="userSpaceOnUse" gradientTransform="matrix(-215.695 -82.6154 87.5876 -288.455 133.206 258.684)">
<stop offset="0" stop-color="#C5D1DE"/>
<stop offset="0.524862" stop-color="#FFFFFF"/>
<stop offset="0.856917" stop-color="#E5E5E5"/>
</linearGradient>
<linearGradient id="paint1_linear" x1="0" y1="0" x2="1" y2="0" gradientUnits="userSpaceOnUse" gradientTransform="matrix(-157.461 -33.4326 237.113 -421.755 23.1967 240.072)">
<stop offset="0" stop-color="#4D341E"/>
<stop offset="1" stop-color="#704E2E"/>
</linearGradient>
<linearGradient id="paint2_linear" x1="0" y1="0" x2="1" y2="0" gradientUnits="userSpaceOnUse" gradientTransform="matrix(-157.461 -33.4326 237.113 -421.755 23.1967 240.072)">
<stop offset="0" stop-color="#F37110"/>
<stop offset="1" stop-color="#F0C19E"/>
</linearGradient>
<path id="path0_fill" d="M 0 0L 177 0L 177 156.952C 177 162.475 172.523 166.952 167 166.952L 10 166.952C 4.47715 166.952 0 162.475 0 156.952L 0 0Z"/>
<path id="path1_fill" d="M 177 12.4784C 177 19.37 137.377 24.9567 88.5 24.9567C 39.6228 24.9567 0 19.37 0 12.4784C 0 5.58675 39.6228 0 88.5 0C 137.377 0 177 5.58675 177 12.4784Z"/>
<path id="path2_stroke" d="M 0 0.5C 2.92454 0.5 4.35977 1.43558 5.87002 2.419C 7.4312 3.43558 9.06739 4.5 12.2857 4.5L 12.2857 3.5C 9.36118 3.5 7.92595 2.56442 6.41569 1.581C 4.85452 0.56442 3.21832 -0.5 0 -0.5L 0 0.5ZM 12.2857 4.5C 15.504 4.5 17.1402 3.43558 18.7014 2.419C 20.2117 1.43558 21.6469 0.5 24.5714 0.5L 24.5714 -0.5C 21.3531 -0.5 19.7169 0.56442 18.1557 1.581C 16.6455 2.56442 15.2102 3.5 12.2857 3.5L 12.2857 4.5ZM 24.5714 0.5C 27.496 0.5 28.9312 1.43558 30.4415 2.419C 32.0026 3.43558 33.6388 4.5 36.8571 4.5L 36.8571 3.5C 33.9326 3.5 32.4974 2.56442 30.9871 1.581C 29.4259 0.56442 27.7898 -0.5 24.5714 -0.5L 24.5714 0.5ZM 36.8571 4.5C 40.0755 4.5 41.7117 3.43558 43.2728 2.419C 44.7831 1.43558 46.2183 0.5 49.1429 0.5L 49.1429 -0.5C 45.9245 -0.5 44.2883 0.56442 42.7272 1.581C 41.2169 2.56442 39.7817 3.5 36.8571 3.5L 36.8571 4.5ZM 49.1429 0.5C 52.0674 0.5 53.5026 1.43558 55.0129 2.419C 56.5741 3.43558 58.2103 4.5 61.4286 4.5L 61.4286 3.5C 58.504 3.5 57.0688 2.56442 55.5586 1.581C 53.9974 0.56442 52.3612 -0.5 49.1429 -0.5L 49.1429 0.5ZM 61.4286 4.5C 64.6469 4.5 66.2831 3.43558 67.8443 2.419C 69.3545 1.43558 70.7898 0.5 73.7143 0.5L 73.7143 -0.5C 70.496 -0.5 68.8598 0.56442 67.2986 1.581C 65.7883 2.56442 64.3531 3.5 61.4286 3.5L 61.4286 4.5ZM 73.7143 0.5C 76.6388 0.5 78.0741 1.43558 79.5843 2.419C 81.1455 3.43558 82.7817 4.5 86 4.5L 86 3.5C 83.0755 3.5 81.6402 2.56442 80.13 1.581C 78.5688 0.564421 76.9326 -0.5 73.7143 -0.5L 73.7143 0.5Z"/>
<path id="path3_stroke" d="M 0 0.5C 1.78016 0.5 2.6517 1.35881 3.64645 2.35355C 4.6517 3.35881 5.78016 4.5 8 4.5L 8 3.5C 6.21984 3.5 5.3483 2.64119 4.35355 1.64645C 3.3483 0.641194 2.21984 -0.5 0 -0.5L 0 0.5ZM 8 4.5C 10.2198 4.5 11.3483 3.35881 12.3536 2.35355C 13.3483 1.35881 14.2198 0.5 16 0.5L 16 -0.5C 13.7802 -0.5 12.6517 0.641194 11.6464 1.64645C 10.6517 2.64119 9.78016 3.5 8 3.5L 8 4.5ZM 16 0.5C 17.7802 0.5 18.6517 1.35881 19.6464 2.35355C 20.6517 3.35881 21.7802 4.5 24 4.5L 24 3.5C 22.2198 3.5 21.3483 2.64119 20.3536 1.64645C 19.3483 0.641194 18.2198 -0.5 16 -0.5L 16 0.5ZM 24 4.5C 26.2198 4.5 27.3483 3.35881 28.3536 2.35355C 29.3483 1.35881 30.2198 0.5 32 0.5L 32 -0.5C 29.7802 -0.5 28.6517 0.641194 27.6464 1.64645C 26.6517 2.64119 25.7802 3.5 24 3.5L 24 4.5ZM 32 0.5C 33.7802 0.5 34.6517 1.35881 35.6464 2.35355C 36.6517 3.35881 37.7802 4.5 40 4.5L 40 3.5C 38.2198 3.5 37.3483 2.64119 36.3536 1.64645C 35.3483 0.641194 34.2198 -0.5 32 -0.5L 32 0.5ZM 40 4.5C 42.2198 4.5 43.3483 3.35881 44.3536 2.35355C 45.3483 1.35881 46.2198 0.5 48 0.5L 48 -0.5C 45.7802 -0.5 44.6517 0.641194 43.6465 1.64645C 42.6517 2.64119 41.7802 3.5 40 3.5L 40 4.5ZM 48 0.5C 49.7802 0.5 50.6517 1.35881 51.6464 2.35355C 52.6517 3.35881 53.7802 4.5 56 4.5L 56 3.5C 54.2198 3.5 53.3483 2.64119 52.3536 1.64645C 51.3483 0.641194 50.2198 -0.5 48 -0.5L 48 0.5Z"/>
</defs>
</svg>

<?xml version="1.0" encoding="UTF-8"?>
<svg version="1.1" viewBox="0 0 246 455" xmlns="http://www.w3.org/2000/svg" xmlns:xlink="http://www.w3.org/1999/xlink">
<g transform="matrix(1.5 0 0 1.5 -12342 168)">
<use transform="translate(8228 24.048)" fill="url(#g)" xlink:href="#d"/>
<mask id="h" mask-type="alpha">
<use transform="translate(8228 12)" fill="url(#f)" xlink:href="#b"/>
</mask>
<g mask="url(#h)">
<use transform="translate(8228 12)" fill="url(#e)" xlink:href="#b"/>
</g>
<use transform="matrix(6.1232e-17 -1 1 6.1232e-17 8356 2)" fill="#FFFFFF" fill-opacity=".2" xlink:href="#c"/>
<use transform="matrix(6.1232e-17 -1 1 6.1232e-17 8308 -56)" fill="#FFFFFF" fill-opacity=".2" xlink:href="#a"/>
<use transform="matrix(6.1232e-17 -1 1 6.1232e-17 8266 6)" fill="#FFFFFF" fill-opacity=".2" xlink:href="#a"/>
</g>
<defs>
<linearGradient id="g" x2="1" gradientTransform="matrix(-215.7 -82.615 87.588 -288.46 133.21 258.68)" gradientUnits="userSpaceOnUse">
<stop stop-color="#C5D1DE" offset="0"/>
<stop stop-color="#fff" offset=".52486"/>
<stop stop-color="#E5E5E5" offset=".85692"/>
</linearGradient>
<linearGradient id="f" x2="1" gradientTransform="matrix(-157.46 -33.433 237.11 -421.76 23.197 240.07)" gradientUnits="userSpaceOnUse">
<stop stop-color="#4D341E" offset="0"/>
<stop stop-color="#704E2E" offset="1"/>
</linearGradient>
<linearGradient id="e" x2="1" gradientTransform="matrix(-157.46 -33.433 237.11 -421.76 23.197 240.07)" gradientUnits="userSpaceOnUse">
<stop stop-color="#F37110" offset="0"/>
<stop stop-color="#F0C19E" offset="1"/>
</linearGradient>
<path id="d" d="m0 0h177v156.95c0 5.523-4.477 10-10 10h-157c-5.5228 0-10-4.477-10-10v-156.95z"/>
<path id="b" d="m177 12.478c0 6.8916-39.623 12.478-88.5 12.478-48.877 0-88.5-5.5867-88.5-12.478 0-6.8916 39.623-12.478 88.5-12.478 48.877 0 88.5 5.5868 88.5 12.478z"/>
<path id="c" d="m0 0.5c2.9245 0 4.3598 0.93558 5.87 1.919 1.5612 1.0166 3.1974 2.081 6.4157 2.081v-1c-2.9245 0-4.3598-0.93558-5.87-1.919-1.5612-1.0166-3.1974-2.081-6.4157-2.081v1zm12.286 4c3.2183 0 4.8545-1.0644 6.4157-2.081 1.5103-0.98342 2.9455-1.919 5.87-1.919v-1c-3.2183 0-4.8545 1.0644-6.4157 2.081-1.5102 0.98342-2.9455 1.919-5.87 1.919v1zm12.286-4c2.9246 0 4.3598 0.93558 5.8701 1.919 1.5611 1.0166 3.1973 2.081 6.4156 2.081v-1c-2.9245 0-4.3597-0.93558-5.87-1.919-1.5612-1.0166-3.1973-2.081-6.4157-2.081v1zm12.286 4c3.2184 0 4.8546-1.0644 6.4157-2.081 1.5103-0.98342 2.9455-1.919 5.8701-1.919v-1c-3.2184 0-4.8546 1.0644-6.4157 2.081-1.5103 0.98342-2.9455 1.919-5.8701 1.919v1zm12.286-4c2.9245 0 4.3597 0.93558 5.87 1.919 1.5612 1.0166 3.1974 2.081 6.4157 2.081v-1c-2.9246 0-4.3598-0.93558-5.87-1.919-1.5612-1.0166-3.1974-2.081-6.4157-2.081v1zm12.286 4c3.2183 0 4.8545-1.0644 6.4157-2.081 1.5102-0.98342 2.9455-1.919 5.87-1.919v-1c-3.2183 0-4.8545 1.0644-6.4157 2.081-1.5103 0.98342-2.9455 1.919-5.87 1.919v1zm12.286-4c2.9245 0 4.3598 0.93558 5.87 1.919 1.5612 1.0166 3.1974 2.081 6.4157 2.081v-1c-2.9245 0-4.3598-0.93558-5.87-1.919-1.5612-1.0166-3.1974-2.081-6.4157-2.081v1z"/>
<path id="a" d="m0 0.5c1.7802 0 2.6517 0.85881 3.6464 1.8536 1.0052 1.0053 2.1337 2.1464 4.3536 2.1464v-1c-1.7802 0-2.6517-0.85881-3.6464-1.8536-1.0052-1.0053-2.1337-2.1464-4.3536-2.1464v1zm8 4c2.2198 0 3.3483-1.1412 4.3536-2.1464 0.9947-0.99474 1.8662-1.8536 3.6464-1.8536v-1c-2.2198 0-3.3483 1.1412-4.3536 2.1464-0.9947 0.99474-1.8662 1.8536-3.6464 1.8536v1zm8-4c1.7802 0 2.6517 0.85881 3.6464 1.8536 1.0053 1.0053 2.1338 2.1464 4.3536 2.1464v-1c-1.7802 0-2.6517-0.85881-3.6464-1.8536-1.0053-1.0053-2.1338-2.1464-4.3536-2.1464v1zm8 4c2.2198 0 3.3483-1.1412 4.3536-2.1464 0.9947-0.99474 1.8662-1.8536 3.6464-1.8536v-1c-2.2198 0-3.3483 1.1412-4.3536 2.1464-0.9947 0.99474-1.8662 1.8536-3.6464 1.8536v1zm8-4c1.7802 0 2.6517 0.85881 3.6464 1.8536 1.0053 1.0053 2.1338 2.1464 4.3536 2.1464v-1c-1.7802 0-2.6517-0.85881-3.6464-1.8536-1.0053-1.0053-2.1338-2.1464-4.3536-2.1464v1zm8 4c2.2198 0 3.3483-1.1412 4.3536-2.1464 0.9947-0.99474 1.8662-1.8536 3.6464-1.8536v-1c-2.2198 0-3.3483 1.1412-4.3535 2.1464-0.9948 0.99474-1.8663 1.8536-3.6465 1.8536v1zm8-4c1.7802 0 2.6517 0.85881 3.6464 1.8536 1.0053 1.0053 2.1338 2.1464 4.3536 2.1464v-1c-1.7802 0-2.6517-0.85881-3.6464-1.8536-1.0053-1.0053-2.1338-2.1464-4.3536-2.1464v1z"/>
</defs>
</svg>
